X: 16
T: Miss McLeod's
R: reel
M: 4/4
L: 1/8
K: Gmaj
|:G2 BG DGBG|~B3A BcBA|G2 BG DGBG|A2AF AcBA|
G2 BG DGBG| ~B3A Bcd2|edcB cdef|~g3d ecAF:|
|:G2 gf efgd|~B3 A BcBA| G2 gf efge|a2 ab agef|
~g3f efge|~B3A Bc d2|edcB cdef|~g3d ecAF:|


Tune 75	Setting 24549

